svg/user/badge_line.svg

<?xml version="1.0" encoding="UTF-8"?>
<svg width="24px" height="24px" viewBox="0 0 24 24" version="1.1" xmlns="http://www.w3.org/2000/svg" xmlns:xlink="http://www.w3.org/1999/xlink">
    <title>badge_line</title>
    <g id="页面-1" stroke="none" stroke-width="1" fill="none" fill-rule="evenodd">
        <g id="User" transform="translate(-576.000000, 0.000000)" fill-rule="nonzero">
            <g id="badge_line" transform="translate(576.000000, 0.000000)">
                 <path d="M24,0 L24,24 L0,24 L0,0 L24,0 Z M12.5934901,23.257841 L12.5819402,23.2595131 L12.5108777,23.2950439 L12.4918791,23.2987469 L12.4918791,23.2987469 L12.4767152,23.2950439 L12.4056548,23.2595131 C12.3958229,23.2563662 12.3870493,23.2590235 12.3821421,23.2649074 L12.3780323,23.275831 L12.360941,23.7031097 L12.3658947,23.7234994 L12.3769048,23.7357139 L12.4804777,23.8096931 L12.4953491,23.8136134 L12.4953491,23.8136134 L12.5071152,23.8096931 L12.6106902,23.7357139 L12.6232938,23.7196733 L12.6232938,23.7196733 L12.6266527,23.7031097 L12.609561,23.275831 C12.6075724,23.2657013 12.6010112,23.2592993 12.5934901,23.257841 L12.5934901,23.257841 Z M12.8583906,23.1452862 L12.8445485,23.1473072 L12.6598443,23.2396597 L12.6498822,23.2499052 L12.6498822,23.2499052 L12.6471943,23.2611114 L12.6650943,23.6906389 L12.6699349,23.7034178 L12.6699349,23.7034178 L12.678386,23.7104931 L12.8793402,23.8032389 C12.8914285,23.8068999 12.9022333,23.8029875 12.9078286,23.7952264 L12.9118235,23.7811639 L12.8776777,23.1665331 C12.8752882,23.1545897 12.8674102,23.1470016 12.8583906,23.1452862 L12.8583906,23.1452862 Z M12.1430473,23.1473072 C12.1332178,23.1423925 12.1221763,23.1452606 12.1156365,23.1525954 L12.1099173,23.1665331 L12.0757714,23.7811639 C12.0751323,23.7926639 12.0828099,23.8018602 12.0926481,23.8045676 L12.108256,23.8032389 L12.3092106,23.7104931 L12.3186497,23.7024347 L12.3186497,23.7024347 L12.3225043,23.6906389 L12.340401,23.2611114 L12.337245,23.2485176 L12.337245,23.2485176 L12.3277531,23.2396597 L12.1430473,23.1473072 Z" id="MingCute" fill-rule="nonzero"></path>
                <path d="M14.4472,1.10555 C14.9412,1.35254 15.1414,1.95321 14.8944,2.44719 L14.118,3.99997 L18,3.99997 C19.1046,3.99997 20,4.89541 20,5.99998 L20,20 C20,21.1045 19.1046,22 18,22 L6,22 C4.89543,22 4,21.1045 4,20 L4,5.99998 C4,4.89541 4.89543,3.99997 6,3.99997 L9.88197,3.99997 L9.10557,2.44719 C8.85858,1.95321 9.05881,1.35254 9.55279,1.10555 C10.0468,0.858558 10.6474,1.05878 10.8944,1.55276 L12,3.76391 L13.1056,1.55276 C13.3526,1.05878 13.9532,0.858558 14.4472,1.10555 Z M10.882,5.99998 L6,5.99998 L6,20 L18,20 L18,5.99998 L13.0002,5.99998 C12.9999,6.36652 12.7974,6.71932 12.4472,6.8944 C11.9532,7.14139 11.3526,6.94117 11.1056,6.44719 L10.882,5.99998 Z M13.5,14 C14.8807,14 16,15.1193 16,16.5 L16,17 C16,17.5523 15.5523,18 15,18 C14.4477,18 14,17.5523 14,17 L14,16.5 C14,16.2238 13.7761,16 13.5,16 L10.5,16 C10.2239,16 10,16.2238 10,16.5 L10,17 C10,17.5523 9.55228,18 9,18 C8.44772,18 8,17.5523 8,17 L8,16.5 C8,15.1193 9.11929,14 10.5,14 L13.5,14 Z M12,8.99998 C13.1046,8.99998 14,9.89541 14,11 C14,12.1045 13.1046,13 12,13 C10.8954,13 10,12.1045 10,11 C10,9.89541 10.8954,8.99998 12,8.99998 Z" id="形状" fill="#09244B"></path>
            </g>
        </g>
    </g>
</svg>

<svg xmlns="http://www.w3.org/2000/svg" width="24" height="24"><g fill="none" fill-rule="nonzero"><path d="M24 0v24H0V0h24ZM12.593 23.258l-.011.002-.071.035-.02.004-.014-.004-.071-.035c-.01-.004-.019-.001-.024.005l-.004.01-.017.428.005.02.01.013.104.074.015.004.012-.004.104-.074.012-.016.004-.017-.017-.427c-.002-.01-.009-.017-.017-.018Zm.265-.113-.013.002-.185.093-.01.01-.003.011.018.43.005.012.008.007.201.093c.012.004.023 0 .029-.008l.004-.014-.034-.614c-.003-.012-.01-.02-.02-.022Zm-.715.002a.023.023 0 0 0-.027.006l-.006.014-.034.614c0 .012.007.02.017.024l.015-.002.201-.093.01-.008.004-.011.017-.43-.003-.012-.01-.01-.184-.092Z"/><path fill="#09244B" d="M14.447 1.106a1 1 0 0 1 .447 1.341L14.118 4H18a2 2 0 0 1 2 2v14a2 2 0 0 1-2 2H6a2 2 0 0 1-2-2V6a2 2 0 0 1 2-2h3.882l-.776-1.553a1 1 0 0 1 1.788-.894L12 3.763l1.106-2.21a1 1 0 0 1 1.341-.447ZM10.882 6H6v14h12V6h-5a1 1 0 0 1-1.894.447L10.882 6Zm2.618 8a2.5 2.5 0 0 1 2.5 2.5v.5a1 1 0 1 1-2 0v-.5a.5.5 0 0 0-.5-.5h-3a.5.5 0 0 0-.5.5v.5a1 1 0 1 1-2 0v-.5a2.5 2.5 0 0 1 2.5-2.5h3ZM12 9a2 2 0 1 1 0 4 2 2 0 0 1 0-4Z"/></g></svg>
